static/images/uploads/tax--icon.svg

<svg height="60" viewBox="0 0 60 60" width="60" xmlns="http://www.w3.org/2000/svg"><path d="m1174.67698 1402c-1.45152 0-2.64736.37285-3.4757 1.2011-.82827.82823-1.20913 2.03472-1.20116 3.47819v45.91952c-.00532 1.44348.37021 2.64989 1.20116 3.47819.83366.83096 2.04811 1.22244 3.51832 1.22244h23.91134c3.32918 2.93222 7.69158 4.70056 12.47249 4.70056 10.41612 0 18.89657-8.4398 18.89657-18.86087 0-4.77781-1.78711-9.14546-4.71947-12.47461v-24.04652c-.00799-1.42214-.39418-2.61526-1.2225-3.43558-.82833-.82032-2.03482-1.17983-3.4757-1.17983zm0 1.34761h22.26816v25.62554h-25.59763l.00016-22.31752c-.00799-1.21173.2903-1.99742.80168-2.50876s1.30241-.80164 2.5275-.80164zm23.61612 0h22.28929c1.2118 0 2.01348.29296 2.5275.80165.51403.50867.81498 1.2943.8203 2.48742v22.65364c-3.36914-3.12394-7.88113-5.03614-12.82908-5.03614s-9.43908 1.9122-12.80801 5.03614zm12.72544 6.72199c-.33026.04261-.60192.36219-.5886.69508v4.71924h-4.86593c-.35422.03728-.6392.39415-.60191.74839.03995.35421.39684.63917.74843.59923h4.71947v4.71924c-.00532.35687.31694.68444.67383.68444s.67915-.32757.67383-.68444v-4.71924h4.71947c.35689.00532.68447-.31692.68447-.6738 0-.35687-.32759-.67911-.68447-.67379h-4.71947v-4.71924c.01598-.38883-.37021-.74574-.75907-.69508zm-32.42383 5.41698c-.35423.03728-.63921.39415-.60192.74839.03995.35421.39684.63917.74843.59923h10.78636c.35689.00532.68447-.31692.68447-.6738 0-.35687-.32759-.67911-.68447-.67379h-10.93295zm32.50633 10.09381c9.68931 0 17.52748 7.86165 17.52748 17.55321s-7.83817 17.53481-17.52748 17.53481-17.50635-7.84325-17.50635-17.53481 7.81977-17.55321 17.50635-17.55321zm-39.75337 4.74051h25.89066c-3.10814 3.36897-5.01511 7.87529-5.01511 12.81277 0 4.94825 1.91495 9.44612 5.03638 12.81277h-22.54225c-1.24644 0-2.05609-.30893-2.57012-.82291-.51403-.51134-.80966-1.30501-.80168-2.53004zm8.50158 8.49026c-.23704.26366-.27965.7244-.01066.97209l3.32918 3.35035-3.32918 3.32902c-.29297.23703-.3196.73503-.05326 1.0014.26634.26632.76439.23969 1.00145-.05326l3.35052-3.35035 3.32918 3.35035c.23704.29296.73507.31959 1.00146.05326.26633-.26632.2397-.76434-.05327-1.0014l-3.35052-3.32902 3.35052-3.35035c.25035-.23969.19975-.65781-.01065-.91884-.30363-.30627-.60192-.2823-.9375-.0293l-3.32918 3.32902-3.35052-3.32902c-.53267-.33822-.70848-.23436-.9375-.02396zm25.71202.95075c-.35422.03728-.6392.39415-.60191.74839.03994.35421.39684.63918.74843.59923h10.78635c.35689.00799.68448-.31692.68448-.67379 0-.35688-.32759-.67912-.68448-.6738h-10.93294zm-.59925 6.16271c.0506.35154.41548.62853.76704.58058h10.78635c.3569.00799.68448-.31692.68448-.67379s-.32759-.67912-.68448-.67379h-10.9118c-.45011.03196-.66051.35953-.64187.76966z" fill="#fff" fill-rule="evenodd" transform="translate(-1170 -1402)"/></svg>

<?xml version="1.0" encoding="UTF-8"?>
<svg width="60px" height="60px" viewBox="0 0 60 60" version="1.1" xmlns="http://www.w3.org/2000/svg" xmlns:xlink="http://www.w3.org/1999/xlink">
    <!-- Generator: Sketch 49.1 (51147) - http://www.bohemiancoding.com/sketch -->
    <title>Fill 1</title>
    <desc>Created with Sketch.</desc>
    <defs></defs>
    <g id="Design" stroke="none" stroke-width="1" fill="none" fill-rule="evenodd">
        <g id="HOME-V4" transform="translate(-1170.000000, -1402.000000)" fill="#FFFFFF">
            <path d="M1174.67698,1402 C1173.22546,1402 1172.02962,1402.37285 1171.20128,1403.2011 C1170.37301,1404.02933 1169.99215,1405.23582 1170.00012,1406.67929 L1170.00012,1452.59881 C1169.9948,1454.04229 1170.37033,1455.2487 1171.20128,1456.077 C1172.03494,1456.90796 1173.24939,1457.29944 1174.7196,1457.29944 L1198.63094,1457.29944 C1201.96012,1460.23166 1206.32252,1462 1211.10343,1462 C1221.51955,1462 1230,1453.5602 1230,1443.13913 C1230,1438.36132 1228.21289,1433.99367 1225.28053,1430.66452 L1225.28053,1406.618 C1225.27254,1405.19586 1224.88635,1404.00274 1224.05803,1403.18242 C1223.2297,1402.3621 1222.02321,1402.00259 1220.58233,1402.00259 L1174.67698,1402 Z M1174.67698,1403.34761 L1196.94514,1403.34761 L1196.94514,1428.97315 L1171.34751,1428.97315 L1171.34767,1406.65563 C1171.33968,1405.4439 1171.63797,1404.65821 1172.14935,1404.14687 C1172.66073,1403.63553 1173.45176,1403.34523 1174.67685,1403.34523 L1174.67698,1403.34761 Z M1198.2931,1403.34761 L1220.58239,1403.34761 C1221.79419,1403.34761 1222.59587,1403.64057 1223.10989,1404.14926 C1223.62392,1404.65793 1223.92487,1405.44356 1223.93019,1406.63668 L1223.93019,1429.29032 C1220.56105,1426.16638 1216.04906,1424.25418 1211.10111,1424.25418 C1206.15316,1424.25418 1201.66203,1426.16638 1198.2931,1429.29032 L1198.2931,1403.34761 Z M1211.01854,1410.0696 C1210.68828,1410.11221 1210.41662,1410.43179 1210.42994,1410.76468 L1210.42994,1415.48392 L1205.56401,1415.48392 C1205.20979,1415.5212 1204.92481,1415.87807 1204.9621,1416.23231 C1205.00205,1416.58652 1205.35894,1416.87148 1205.71053,1416.83154 L1210.43,1416.83154 L1210.43,1421.55078 C1210.42468,1421.90765 1210.74694,1422.23522 1211.10383,1422.23522 C1211.46072,1422.23522 1211.78298,1421.90765 1211.77766,1421.55078 L1211.77766,1416.83154 L1216.49713,1416.83154 C1216.85402,1416.83686 1217.1816,1416.51462 1217.1816,1416.15774 C1217.1816,1415.80087 1216.85401,1415.47863 1216.49713,1415.48395 L1211.77766,1415.48395 L1211.77766,1410.76471 C1211.79364,1410.37588 1211.40745,1410.01897 1211.01859,1410.06963 L1211.01854,1410.0696 Z M1178.59471,1415.48658 C1178.24048,1415.52386 1177.9555,1415.88073 1177.99279,1416.23497 C1178.03274,1416.58918 1178.38963,1416.87414 1178.74122,1416.8342 L1189.52758,1416.8342 C1189.88447,1416.83952 1190.21205,1416.51728 1190.21205,1416.1604 C1190.21205,1415.80353 1189.88446,1415.48129 1189.52758,1415.48661 L1178.59463,1415.48661 L1178.59471,1415.48658 Z M1211.10104,1425.58039 C1220.79035,1425.58039 1228.62852,1433.44204 1228.62852,1443.1336 C1228.62852,1452.82516 1220.79035,1460.66841 1211.10104,1460.66841 C1201.41173,1460.66841 1193.59469,1452.82516 1193.59469,1443.1336 C1193.59469,1433.44204 1201.41446,1425.58039 1211.10104,1425.58039 Z M1171.34767,1430.3209 L1197.23833,1430.3209 C1194.13019,1433.68987 1192.22322,1438.19619 1192.22322,1443.13367 C1192.22322,1448.08192 1194.13817,1452.57979 1197.2596,1455.94644 L1174.71735,1455.94644 C1173.47091,1455.94644 1172.66126,1455.63751 1172.14723,1455.12353 C1171.6332,1454.61219 1171.33757,1453.81852 1171.34555,1452.59349 L1171.34767,1430.3209 Z M1179.84925,1438.81116 C1179.61221,1439.07482 1179.5696,1439.53556 1179.83859,1439.78325 L1183.16777,1443.1336 L1179.83859,1446.46262 C1179.54562,1446.69965 1179.51899,1447.19765 1179.78533,1447.46402 C1180.05167,1447.73034 1180.54972,1447.70371 1180.78678,1447.41076 L1184.1373,1444.06041 L1187.46648,1447.41076 C1187.70352,1447.70372 1188.20155,1447.73035 1188.46794,1447.46402 C1188.73427,1447.1977 1188.70764,1446.69968 1188.41467,1446.46262 L1185.06415,1443.1336 L1188.41467,1439.78325 C1188.66502,1439.54356 1188.61442,1439.12544 1188.40402,1438.86441 C1188.10039,1438.55814 1187.8021,1438.58211 1187.46652,1438.83511 L1184.13734,1442.16413 L1180.78682,1438.83511 C1180.25415,1438.49689 1180.07834,1438.60075 1179.84932,1438.81115 L1179.84925,1438.81116 Z M1205.56127,1439.76191 C1205.20705,1439.79919 1204.92207,1440.15606 1204.95936,1440.5103 C1204.9993,1440.86451 1205.3562,1441.14948 1205.70779,1441.10953 L1216.49414,1441.10953 C1216.85103,1441.11752 1217.17862,1440.79261 1217.17862,1440.43574 C1217.17862,1440.07886 1216.85103,1439.75662 1216.49414,1439.76194 L1205.5612,1439.76194 L1205.56127,1439.76191 Z M1204.96202,1445.92462 C1205.01262,1446.27616 1205.3775,1446.55315 1205.72906,1446.5052 L1216.51541,1446.5052 C1216.87231,1446.51319 1217.19989,1446.18828 1217.19989,1445.83141 C1217.19989,1445.47454 1216.8723,1445.15229 1216.51541,1445.15762 L1205.60361,1445.15762 C1205.1535,1445.18958 1204.9431,1445.51715 1204.96174,1445.92728 L1204.96202,1445.92462 Z" id="Fill-1"></path>
        </g>
    </g>
</svg>
